!!!!SEGMENT: pl-sa--l-1636--024_anonim-preambulum-ex-e.krn
!!!id: 17xx:731
!!!COM: Anonim
!!!OTL: Preambulum ex E
!!!PDT:
!!!SMS-siglum: PL-SA
!!!SMS-shelfmark: L 1636
!!!NIFC-rismID: 1001076431
!!!URL-scan: http://repozytorium.nifc.pl/skany/pl-sa-nut--l1636
!!!ONB-nifc: 7v, skan 0011, s. 1-2
!!!SMS-variant:
!!!SMS-altvar:
**kern	**kern
*part1	*part1
*staff2	*staff1
*I"[Keyboard]	*
*I'keyb	*
*clefF4	*clefC1
*k[]	*k[]
*M2/2	*M2/2
*met(c|)	*met(c|)
=1	=1
1A 1E 1BB 1EE	1b 1g 1d 1B
=2	=2
*^	*
*2\right	*2\right	*2\right
2G#X/	1E	2b/
4A/	.	4cc\
8G#/L	.	8b\L
8F/J	.	8a\J
=3	=3	=3
*	*	*^
2B/	2E\	2g#X/	2e\
[>2c/	2C\	2a/	2e\
=4	=4	=4	=4
2c/]	2D\	2f#X/	2ryy
2B/	2E\	2g/	4e
.	.	.	4d\
=5	=5	=5	=5
4A/	1F	1a	2.c\
4G/	.	.	.
4A/	.	.	.
4B/	.	.	4d\
*	*	*v	*v
=6	=6	=6
1c	2E\	2g/
.	2C\	2e/
=7	=7	=7
2A/	1D	4f/
.	.	4e/
2B/	.	4f/
.	.	4d/
=8	=8	=8
2c/	2C\	4e/
.	.	4g/
2G/	4C\	4a/
.	4BB\	4b\
!!LO:LB:g=original
=9	=9	=9
2G/	1AA	4cc\
.	.	4b\
2F#X/	.	4cc\
.	.	4a\
=10	=10	=10
4G/	2GG\	4b\
4F#y/	.	4a\
!	!	!LO:N:vis=1
2E/	4C\	2g\
.	4BB\	.
=11	=11	=11
4A/	1AA	8cc\L
.	.	8dd\
4G/	.	8b\
.	.	8cc\J
4F#X/	.	8a\L
.	.	8b\
4E/	.	8g\
.	.	8a\J
=12	=12	=12
!	!	!LO:TX:a:t=P:problem:mixed beam
2D#X/	1AA	8f#X/L
.	.	8b\
.	.	8a\
.	.	8b\J
2E/	.	8e/L
.	.	8g/
.	.	8f#/
.	.	8e/J
=13	=13	=13
*	*	*^
8F/L	1BB	2f/	2d#X\
8B/	.	.	.
8A/	.	.	.
8B/J	.	.	.
8E/L	.	2g/	2e\
8G/	.	.	.
8F/	.	.	.
8E/J	.	.	.
*v	*v	*	*
=14	=14	=14
1B 1F 1BB	4f/	4d\
.	4g/	[<4e\
.	2f/	4e\]
.	.	4d\
*	*v	*v
=15	=15
1E 1BB 1EE	1e 1B 1G
!LO:TX:a:t=P:problem:w źródle końcowa kreska taktowa :||:	!LO:TX:a:t=P:problem:w źródle końcowa kreska taktowa :||:
==;	==;
*-	*-
!!!system-decoration: s1,s2
!!!RDF**kern: > = above
!!!RDF**kern: < = below
!!!ENC: Tomasz Grochalski
!!!END: 2020-06-11
!!!EED: Antoni Szymański
!!!EST: 2020-12-07
